src/icons/icecream.svg

<svg xmlns="http://www.w3.org/2000/svg" width="512" height="512" viewBox="0 0 512 512">
    <path d="M153.3 249.5l102.8 180 102.8-180H153.3zm220.6-67.1c-.6-.3-1.2-.6-1.8-1-3.5-2.2-6.7-6.8-7-10.2l.1-.6c2.6-7.2 4-15.4 4-23.9 0-42.7-34.5-77.2-77.2-77.2-25.2 0-47.6 12-61.7 30.8 0 0-7.3 11.2-8.7 23.3 0 0 .9-15.6 3.4-25.3-5.9-2-12.4-3.1-19-3.1-33.5 0-60.7 27.1-60.7 60.7 0 5.1.6 10.1 1.8 14.9 0 .3-.1.6-.2.8-.7 4.1-3.2 7.6-6.7 9.9-.6.4-1.2.7-1.8 1-6.6 4-10.8 10.9-10.8 18.8 0 12.4 10.8 22.5 24 22.5h209.1c13.2 0 23.902-10 23.902-22.5.098-7.9-4.202-14.9-10.702-18.9z"/>
</svg>

<?xml version="1.0" encoding="UTF-8"?>
<svg width="512px" height="512px" viewBox="0 0 512 512" version="1.1" xmlns="http://www.w3.org/2000/svg" xmlns:xlink="http://www.w3.org/1999/xlink">
    <!-- Generator: Sketch 62 (91390) - https://sketch.com -->
    <title>icecream</title>
    <desc>Created with Sketch.</desc>
    <g id="icecream" stroke="none" stroke-width="1" fill="none" fill-rule="evenodd">
        <path d="M153.3,249.5 L256.1,429.5 L358.9,249.5 L153.3,249.5 Z M373.9,182.4 C373.3,182.1 372.7,181.8 372.1,181.4 C368.6,179.2 365.4,174.6 365.1,171.2 L365.2,170.6 C367.8,163.4 369.2,155.2 369.2,146.7 C369.2,104 334.7,69.5 292,69.5 C266.8,69.5 244.4,81.5 230.3,100.3 C230.3,100.3 223,111.5 221.6,123.6 C221.6,123.6 222.5,108 225,98.3 C219.1,96.3 212.6,95.2 206,95.2 C172.5,95.2 145.3,122.3 145.3,155.9 C145.3,161 145.9,166 147.1,170.8 C147.1,171.1 147,171.4 146.9,171.6 C146.2,175.7 143.7,179.2 140.2,181.5 C139.6,181.9 139,182.2 138.4,182.5 C131.8,186.5 127.6,193.4 127.6,201.3 C127.6,213.7 138.4,223.8 151.6,223.8 L360.7,223.8 C373.9,223.8 384.601708,213.8 384.601708,201.3 C384.7,193.4 380.4,186.4 373.9,182.4 L373.9,182.4 Z" id="Shape" fill="#000000" fill-rule="nonzero"></path>
    </g>
</svg>
